X:1
T: Dod House
O: Glen Collection
R: strathspey
B: RSCDS __-__
N: The Hilton Manuscript
Z: 1997 by John Chambers <jc:trillian.mit.edu>
M: C
L: 1/8
%--------------------
K: A
C \
| "A"A,>C E>F A>B c>B | "D"A<F F>A "E7"B<B, B,>C \
| "A"A,>C E>F A>B c>B | "D"A<F "E7"EC "A"EA,A, ||
c \
| "A"A>c e>f a>b c'>b | "D"a<f f>a "E7"b<B B>c \
| "A"A>c e>f a>b c'>b | "D"a<f "E7"ec "A"eAA ||
c/d/ \
| "A"ef/e/ d/c/B/A/ e<A "D"d>f | "A"ed/c/ cB/A/ "E7"cB Bc/d/ \
| "A"ef/e/ cB/A/ "D"f/g/a/e/ d/c/B/A/ | "E7"E<A c>B "A"cA A ||
c/d/ \
| "A"ef/e/ d/c/B/A/ a>A cB/A/ | "E7"d>B "A"c>A "E7"B<B, B,>C \
| "A"A,>C E>F A>B c>B | "D"A>F "E7"EC "A"EA,A, |]
